X:1
T:The Well-Tempered Clavier Part II Fuga XXII
T:BWV 891
T:J. S. Bach
%%score { ( 1 2 ) | ( 3 4 ) }
L:1/8
Q:1/4=200
M:3/2
K:Db
V:1 treble nm="Harp"
V:2 treble 
V:3 bass 
V:4 bass 
V:1
"^Prestissimo" z12 | z12 | z12 | z12 | F4 =G4 z2 A2 | B2 =E2 F4 z2 =G2 | AF=GA BGAB cABc | %7
 dB c2 z2 d2 =G2 =AB | =A2 f2 z2 B2 F2 =G_A | =G2 e4 =A4 Bc | F2 B4 =A=G A2 B2 | cd e4 d2 ce g2 | %12
 f2 z2 c2 z2 d2 z2 | e4- edcd e2 c2 | f2 =d2 BABc _d2 B2 | e2 c2 A2 d2 c2 =E2 | F4 F2 =E=D E2 c2 | %17
 d2 c4 =B2 c4- | c2 z2 =e2 z2 f2 z2 | =g12- | g2 f=e f8- | f12- | f2 gf e8- | e12- | %24
 e2 dc d2 f2 B2 d2- | d2 cd e2 c2 =A2 c2- | c2 B2 z2 g2- gfed | cd e2 z2 b2 c'2 e2- | %28
 e2 d2 g2 z2 f2 z2 | b2 z2 =a8 | b2 z2 z4 z4 | z12 | d4 e4 z2 f2 | g2 c2 d4 z2 e2 | %34
 fdef gefg afga | bg a2 z2 b2 e2 fg | f2 z2 g2 z2 a2 z2 | z2 g2 f2 _f4 ed | e2 fg f2 =ga g4 | %39
 a2 z2 z4 z4 | z2 f2 =e2 _e4 dc | d2 b2 =a2 _a2 g2 f2 | g2 c2 d2 =d2 e2 B2 | _d2 z2 =A2 z2 B2 z2 | %44
 e2 d2- dcde =A4 | B4 z4 z4 | z12 | z12 | z12 | z12 | z12 | d4 c4 z2 B2 | =A2 e2 d4 z2 _c2 | %53
 Bd_cB AcBA GBAG | FA G2 z2 F2 _c2 BA | B2 e4 d_c d2 g2- | g2 _fe d_cBA B4- | B2 A4 =G2 A4- | %58
 A2 a2 =g2 _g2 f2 _f2 | e12- | e2 d_c d_fed cBA=G | A12- | ABAG AB _c4 BA | B12- | BcB=A Bc d4 cB | %65
 cdcB cd e4 dc | d2 z2 g4 f4 | z2 e2 =d2 _a2 g4 | z2 f2 egfe dfed | cedc Bd c2 z2 B2 | %70
 f2 ed e6 dc | dedc B2 b4 a=g | a4- a2 =g4 f2 | =e4 _e2 =a2 b2 =e2 | f2 z2 =e2 z2 f2 z2 | %75
 B2 cB A2 BA =G2 z2 | z2 =G2 d2 cB c4- | c2 BA d6 cB | e6 dc f2 z2 | e4 d4 z2 c2 | B2 f2 e4 z2 d2 | %81
 cedc BdcB AcBA | =GB A2 z2 G2 d2 cB | c2 d2 G6 G2 | e2 dc d2 e2 A4- | A2 A2 f2 ed e2 f2 | %86
 B6 =A=G A2 B2 | E8- E2 DC | D2 B4 =A2 B3 _A | G4 F2 =d2 e2 _dc | f2 z2 G2 z2 F2 z2 | E2 z2 z4 z4 | %92
 z4 z2 B2 e4- | e2 dc d8- | d2 cB c4 z4 | B4 c4 z2 d2 | e2 =A2 B4 z2 c2 | dBcd ecde fdef | %98
 ge f2 z2 g2 c2 de | d2 c2 B4- B/4=A/4B/4A/4B/4A/4B/4A/4 B/4A/4B/4A/4B | !fermata!B12 |] %101
V:2
 B,2 z2 C4 z2 D2 | E2 =A,2 B,4 z2 C2 | DB,CD ECDE FDEF | GE F2 z2 G2 C2 DE | %4
 D2[I:staff +1] =A,2 B,2 =B,2 C4 |[I:staff -1] z2 C2 D2 =D2 _E2 =E2 | F12- | F2 =E=D E4 z2 _E2- | %8
 E2 =DC D4 z2 _D2- | D2 CB, C2 _G2 F2 E2- | E2 =D2 E2 =E2 F4 | z2 F2 G2 =G2 A2 =A2 | B12- | %13
 B2 =A=G A4 z2 _A2- | A2 =GF G4 z2 _G2- | G2 FE F6 B,2 | x12 | x12 | x12 | B2 z2 =G2 z2 c2 z2 | %20
 C2 z2 c2 z2 F2 z2 | Bc d2 z2 B2 F2 GA | G2 E2 B2 z2 E2 z2 | AB c2 z2 A2 E2 FG | F2 G2 A6 GF | %25
 G2 E2 z2 G4 FE | D2 z2 =A4 B4 | z2 c2 d2[I:staff +1] =G2 =A4 |[I:staff -1] z2 B2 c=ABc dBcd | %29
 ecde fd e2 z2 f2 | B2 cd c2 B2 =A2 Bc | B2 A2 =G2 AB A2 _G2 | F2 EF G2 FE D2 d2 | cBAG FE D2 A4- | %34
 A8 d4- | d8 c4 | z2 d2 c2 _c4 BA | B2 z2 _c2 z2 d2 B2 | G2 z2 A2 z2 B2 z2 | z2 A2 =G2 _G4 FE | %40
 FG A2 =G2 =AB c2 _A2 | B2 d2 c2 _c2 B4 | z2 B2 =A2 _A2 =G2 _G2 | F12- | F4 z4 z4 | B4 _A4 z2 G2 | %46
 F2 _c2 B4 z2 A2 | GBAG FAGF EGFE | =DF E2 z2 [DB]2 B x GF | GA B4 =AB c2 E2- | [ED]2 D B6 A2- x | %51
 AF B2 =A2 _A2 =G4 | z2 G2 F2 _F2 E2 __E2 | D8- D2 _C2- | C2[I:staff +1] B,A, G,B,A,G, F,A,=G,F, | %55
 =G,4 A,4 B,4 | _C4 B,6[I:staff -1] _F2 | E12 | z2 =d2 eB e2- e_d_cB | _c2 z2 d2 z2 c2 z2 | %60
 B2 z2 z4 _F4- | F2 ED E=F G4 FE | F12- | FGFE FG A4 GF | G12- | G4 F6 =A2 | Bc d4 c2 d2 F2 | %67
 E2 c2 B2 =d2 e2 c2- | c=A B4 A2 B2 z2 | x12 | x12 | x12 | c4 B4 z2 A2 | =G2 d2 c4 z2 B2 | %74
 AcBA =GBAG FAGF | =E=G F2 z2 _E2 B2 AG | AF =G2 z2 G4 F=E | A6 =GF B4- | B2 A=G c6 BA | %79
 =G2 A2 B2 B,2 C2 A2- | A2 =G2 A2 z2 B2 z2 | E2 A2 =G2 _G2 F2 _F2 | E2 z2 z4 z4 | x12 | x12 | x12 | %86
 x12 | x12 | z4 G4 F4 | z2 E2 =D2 A2 G4 | z E2 x EGFE DFED | CEDC B,D C2 z2 B,2 | F2 E=D E4 z2 E2 | %93
 c6 B=A B4- | B6 =A=G A4 | D4 E4 z2 F2 | G2 C2 =D4 z2 =A2 | B=G=AB cABc dBcd | ec d2 z2 e2 =A2 Bc | %99
 B2 G2 F8 | F12 |] %101
V:3
 z12 | z12 | z12 | z12 | z12 | z12 | z12 | z12 | z12 | z12 | B,,4 C,4 z2 D,2 | %11
 E,2 =A,,2 B,,4 z2 C,2 | D,B,,C,D, E,C,D,E, F,D,E,F, | G,E, F,2 z2 G,2 C,2 D,E, | %14
 =D,2 B,2 z2 E,2 B,,2 C,_D, | z12 | F,4 =G,4 z2 A,2 | B,2 =E,2 F,4 z2 =G,2 | %18
 A,F,=G,A, B,G,A,B, CA,B,C | DB, C2 z2 D2 =G,2 =A,B, | A,2 z2 z2 F2 C2 DE | D2 F,2 B,2 z2 _C2 z2 | %22
 B,2 z2 z2 E2 B,2 CD | C2 E,2 A,2 z2 C,2 z2 | D,2 E,2 F,2 D,2 G,2 B,2 | E,2 G,2 C,2 E,2 F,2 =A,2 | %26
 B,4 C4 z2 D2 | E2 =A,2 B,4 z2 C2 | DB,CD ECDE FDEF | GE F2 z2 G2 C2 DE | D2 B,2 E2 FG F2 E2 | %31
 =D2 EF E2 _D2 C2 DE | D2 CB, A,8- | A,8- A,G,F,E, | F,2 D2 C2 z2 A,2 z2 | E2 z2 F2 ED A4- | %36
 A4 z4 z4 | z12 | z2 E2 =D2 _D4 =CB, | C2 B,A, D2 CB, E2 DC | D2 z2 z4 z4 | F4 E4 z2 D2 | %42
 C2 G2 F4 z2 E2 | DFED CEDC B,DCB, | =A,C B,2 z2 _A,2 E2 DC | D2 G2 F2 _F2 E4 | %46
 z2 E2 =D2 _D2 C2 _C2 | B,12- | B,2 B,2 A,B, _C2 F,2 =D2 | E2 F2 G2 CD E2 =A,2 | %50
 B,C D2- D2 CD E2 G,2 | F,2 =G,4 F,4 =E,2 | F,2 =A,2 B,2 _A,G, A,2 G,F, | G,2 z2 F,2 z2 E,2 z2 | %54
 D,12- | D,2 _C,B,, C,2 _F,4 E,D, | E,2 A,4 =G,F, G,2 A,B, | _C4 B,4 A,2[I:staff -1] B,_C | %58
 D2[I:staff +1] z2 z2 E2[I:staff -1] F2 =G2 | %59
 A2[I:staff +1] z2[I:staff -1] =G2[I:staff +1] z2[I:staff -1] A2[I:staff +1] z2 | %60
[I:staff -1] E2[I:staff +1] z2 z4 z4 | _C,2 _CB, C2 E2 =C2 A,2 | D2 A,2 F,2 D,2 F,2 A,2 | %63
 =D,2 =DC D2 F2 _D2 B,2 | E2 E,2 G,2 B,2 E,2 G,2 | z12 | F4 E4 z2 D2 | C2 G2 F4 z2 E2 | %68
 DFED CEDC B,DCB, | =A,C B,2 z2 A,2 E2 DC | D6 CB, C2[I:staff -1] F2- | %71
 F2 =E2 F2[I:staff +1] A,2 =G,A, B,2 | A,B,A,=G, F,=E,F,G, A,G,A,B, | C2 z2 z2 G,2 F,2 =G,2 | %74
 A,B, C2 z4 z4 | z2 C2 D2 B,2 =E,2 F,2- | F,2 D2 =E,6 =D,C, | F,6 E,D, =G,4- | G,2 F,E, A,6 =G,F, | %79
 B,2 C2 =G,4 A,4 | z2 B,2 C2 F,2 =G,4 | z2 A,2 B,=G,A,B, CA,B,C | DB,CD EC D2 z2 E2 | %83
 A,2 B,C B,2[I:staff -1] CD E4- | E2 G4 FE F2 A2 | =D2[I:staff +1] z2 z2 B,2[I:staff -1] A2 GF | %86
 GF G2 C6[I:staff +1] B,2- | B,2 =A,=G, A,2[I:staff -1] C2[I:staff +1] F,4- | F,2 E,D, E,2 E4 D2- | %89
 D2 C4 _C2 B,2 =A,2 | B,12- | B,2 =A,2 B,4 _A,4- | A,4 =G,4 _G,4 | F,8- F,G,F,=E, | F,6 C2 F4 | %95
 z4 G,4 F,4 | z2 E,2 =D,2 A,2 G,4 | z2 F,2 E,G,F,E, D,F,E,D, | C,E,D,C, B,,D, C,2 z2 G,2 | %99
[I:staff -1] F2 E2 D4 C4 | D12 |] %101
V:4
 x12 | x12 | x12 | x12 | x12 | x12 | x12 | x12 | x12 | x12 | x12 | x12 | x12 | x12 | x12 | %15
 z2 A,,2 D,2 C,B,, A,,2 =G,,2 | A,,2 =A,,2 B,,2 =B,,2 C,4 | z2 C,2 D,2 =D,2 _E,2 =E,2 | F,12- | %19
 F,2 =E,=D, E,8 | F,=E,F,=G, A,2 z2 =A,2 z2 | B,2 B,,C, D,2 z2 =D,2 z2 | E,=D,E,F, G,2 z2 =G,2 z2 | %23
 A,2 A,,B,, C,2 z2 A,,2 z2 | x12 | x12 | x12 | x12 | x12 | x12 | x12 | x12 | z4 C,4 D,4 | %33
 z2 E,2 F,2 B,,2 C,4 | z2 D,2 E,C,D,E, F,D,E,F, | G,E,F,G, A,F, G,2 z2 A,2 | %36
 D,2 E,F, E,2 F,G, F,2 D,2 | G,2 A,B, A,2 B,_C B,2 G,2 | _C2 z2 C2 z2 B,2 E,2 | %39
 A,2 F,2 B,,2 E,2 C,2 A,,2 | D,2 D4 CB, =A,2 F,2 | B,8- B,2 B,2 | E,D, E,2 F,2 F,,2 =G,,2 =A,,2 | %43
 B,,2 z2 E,2 z2 D,2 z2 | C,2 D,E, F,4 F,,4 | B,,4 z2 B,,2 _C,2 =C,2 | =D,F, A,4 =G,2 A,2 D,2 | %47
 E,2 z2 F,2 z2 G,2 z2 | A,2 G,2 F,G, A,2 =D,2 B,,2 | E,2 D,2 C,D, E,2 =A,,C,F,E, | %50
 D,F,B,A, G,F,E,D, C,D,E,C, | D,2 B,,2 C,8 | F,,2 z2 z4 z4 | x12 | x12 | x12 | x12 | %57
 E,4 D,4 z2 _C,2 | B,,2 _F,2 E,4 z2 D,2 | _C,E,D,C, B,,D,C,B,, A,,C,B,,A,, | %60
 =G,,B,, A,,2 z2 G,,2 D,2 _C,B,, | x12 | x12 | x12 | x12 | =A,,2 =A,2 A,B,A,=G, A,2 F,2 | %66
 B,4- B,CB,=A, B,4- | B,CB,=A, B,4- B,CB,A, | B,4 z2 F,2 G,4- | G,2 F,E, F,8- | %70
 F,2 F,2 G,2 =G,2 A,2 =A,2 | B,2 B,,C, D,2 =D,2 E,2 =E,2 | F,2 E,2 D,4 C,4 | %73
 z2 B,,2 =A,,2 E,2 D,4 | z2 C,2 B,,D,C,B,, A,,C,B,,A,, | =G,,B,,A,,G,, F,,A,, G,,2 z2 F,,2 | %76
 C,2 B,,A,, B,,2 =G,,2 A,,4- | A,,2 =G,,F,, B,,6 A,,G,, | C,6 B,,A,, D,4- | D,2 C,2 B,,2 E,4 =D,2 | %80
 E,2 D,2 C,E,D,C, B,,D,C,B,, | A,,2 z2 z4 A,4- | A,2 A,2 =G,A, B,2 E,2 _G,2- | %83
 G,2 F,4 E,2 B,,2 C,D, | C,2 A,,2 B,,2 C,2 D,2 _C,2 | B,,2 A,,G,, A,,2 B,,2 =C,2 =D,2 | %86
 E,=D,E,F, G,2 F,2 E,2 _D,2 | C,2 D,2 C,2 B,,2 =A,,2 F,,2 | B,,4 C,4 z2 D,2 | %89
 E,2 =A,,2 B,,4 z2 C,2 | x12 | G,E, F,2 z2 G,2 C,2 =D,E, | =D,2 B,,2 E,2 _D,2 C,2 B,,2 | %93
 =A,,2 F,,2 B,,2 C,2 D,2 B,,2 | F,2 F,,2 F,4- F,G,F,E, | G,A,G,F, E,4 D,4 | z2 C,2 B,,2 F,2 E,4 | %97
 z2 D,2 C,E,D,C, B,,D,C,B,, | =A,,C,B,,A,, =G,,B,, A,,2 z2 F,,2 | B,,2 E,2 F,4 F,,4 | %100
 !fermata!B,,12 |] %101

